static/images/street-map.svg

<svg width="802" height="1027" fill="none" xmlns="http://www.w3.org/2000/svg"><g opacity=".4" stroke="#fff" stroke-miterlimit="10"><path d="M330.035 388.563c-39.68-10.764-82.147-30.157-109.676-60.689-16.314-18.097-27.976-39.897-37.648-62.27a446.144 446.144 0 0 1-33.19-122.145S136.204 33.654 176.226-90.416" stroke-width="9"/><path d="M192.366 274.142c30.006-17.998 56.858-42.248 74.055-72.757 17.197-30.509 24.093-67.511 14.832-101.215 0 0-9.957-119.444-115.239-155.125m328.57 250.181a661.608 661.608 0 0 1-2.102-160.108s12.807-115.353 60.78-210.307m-161.77 684.701c160.772-9.294 324.35 55.988 434.514 173.437 0 0 59.06 62.177 103.476 170.975" stroke-width="9"/><path d="M557.584 521.844c17.042-34.633 35.068-70.453 65.511-94.213 15.319-11.947 33.151-20.239 51.098-27.694 45.725-19.035 95.438-33.414 144.394-25.909 17.814 2.73 35.045 8.248 52.041 14.359M612.663 545.062c1.782.269 1.35 2.962.487 4.55-14.157 25.855-14.916 57.455-7.731 86.043 7.186 28.589 21.687 54.757 36.954 79.986a1415.8 1415.8 0 0 0 12.98 20.944s85.354 145.371 230.391 29.403m-420.451-254.23a415.734 415.734 0 0 1 7.067 267.456s-55.131 163.435-220.025 119.264m385.336-482.025a402.105 402.105 0 0 1-60.996-178.016" stroke-width="9"/><path d="M241.966 347.348c15.463-12.827 21.398-34.43 20.081-54.483-1.316-20.054-8.85-39.106-16.307-57.772m10.773-22.329a313.773 313.773 0 0 0-21.829-26.931c-5.373-5.928-11.079-11.726-18.071-15.591-7.429-4.129-15.92-5.842-24.292-7.262a415.073 415.073 0 0 0-36.924-4.529" stroke-width="2"/><path d="M206.746 306.692a112.983 112.983 0 0 1 53.099-21.69m77.636 58.231a394.936 394.936 0 0 0-46.106-17.781m10.378-13.879a264.906 264.906 0 0 0-24.801-9.921 50.373 50.373 0 0 0-6.198-1.813 28.06 28.06 0 0 0-8.107-.432m68.05-76.888c-9.71 4.27-12.984 15.391-9.318 24.721 2.631 6.73 9.352 9.583 16.57 8.164a18.756 18.756 0 0 0 14.406-14.443c.55-2.851.362-5.795-.545-8.554a17.048 17.048 0 0 0-4.641-7.206 15.93 15.93 0 0 0-16.472-2.682Z" stroke-width="2"/><path d="M261.923 358.987c20.412-18.359 52.11-59.971 66.409-104.181m-8.042-15.483a819.97 819.97 0 0 1-70.115-9.705m80.694-7.824a105.929 105.929 0 0 0-47.548-63.117m61.648 63.328c26.43-26.484 58.852-46.148 91.731-64.008 16.58-9.015 33.492-17.698 51.654-22.782M377.338 275.31a124.945 124.945 0 0 0-28.667-24.502" stroke-width="2"/><path d="m363.596 259.468 23.777-26.357a40.269 40.269 0 0 0 7.115-9.653c1.738-3.641 2.246-8.024.481-11.621a20.262 20.262 0 0 0-3.973-5.055l-11.858-12.154m38.129-26.267c-8.882-12.287-23.548-18.764-37.508-24.684-7.655-3.254-15.311-6.507-23.304-8.993-22.434-7.013-46.311-7.712-69.879-7.611" stroke-width="2"/><path d="M308.979 179.086a198.536 198.536 0 0 0 43.855-44.395m21.599 7.035a323.872 323.872 0 0 1 112.332-62.472" stroke-width="2"/><path d="M434.172 100.252a175.23 175.23 0 0 0-13.307-12.241l-20.501-17.572S311.223 12.916 280.182-98.272m165.395 251.218c-1.969-4.411-5.222-8.098-8.425-11.745l-23.744-26.838m24.829 107.548a320.871 320.871 0 0 0-32.091-46.392m67.977 29.477c-4.172-8.38-8.317-16.658-13.272-24.516-5.585-8.842-12.235-17.155-16.106-26.89m190.732-18.001c-19.508-15.789-43.758-25.071-68.539-29.041-24.78-3.97-50.136-2.848-75.007.492m110.362 240.321c-21.807 22.776-41.162 48.369-53.751 77.29-12.589 28.922-18.178 61.435-12.303 92.424" stroke-width="2"/><path d="M530.339 183.949a294.538 294.538 0 0 0 8.184-78.173m36.198 65.617a230.64 230.64 0 0 0 5.487-61.956m-21.325-4.34a307.2 307.2 0 0 0-1.245-74.778s-9.617-74.476-43.12-102.946" stroke-width="2"/><path d="M643.959 51.746c-28.002-2.171-55.919 3.98-83.298 10.108m17.367 414.459a263.296 263.296 0 0 0-39.426-21.008m69.993-21.075a144.236 144.236 0 0 0-46.474-33.284m-56.176 111.276a878.963 878.963 0 0 0-.655-28.318c-.122-3.291-.303-6.702-1.767-9.634-3.389-6.772-12.051-8.616-19.576-9.408a308.82 308.82 0 0 0-67.488.35 8.26 8.26 0 0 0-4.055 1.222c-2.185 1.617-2.249 4.822-2.051 7.537a410.723 410.723 0 0 0 3.383 32.878m296.451-124.235c-2.849-34.988-17.964-67.653-33.149-99.308-11.004-22.939-22.306-46.029-38.201-65.907" stroke-width="2"/><path d="M598.906 321.961a500.68 500.68 0 0 1 77.539-35.146c.557-.149 1.215-.529 1.171-1.1-.045-.571-1.218-.393-.855.053m18.295 33.942a1948.488 1948.488 0 0 1 127.148-50.622M659.617 245.18a295.415 295.415 0 0 0 122.132-119.017" stroke-width="2"/><path d="M767.281 291.417c-11.113-30.739-28.337-61.197-47.406-87.701m32.409-34.245a256.232 256.232 0 0 0-47.471-28.296m6.746-71.235a628.428 628.428 0 0 1 40.926-10.206.619.619 0 0 0-.284-.511.614.614 0 0 0-.583-.044M636.943 548.935a172.596 172.596 0 0 0 22.958-141.016" stroke-width="2"/><path d="M658.34 501.44c-7.052-5.152-15.644-7.748-23.994-10.151a879.534 879.534 0 0 0-50.302-12.68m37.065 8.195a1150.86 1150.86 0 0 1 5.829-18.753 83.743 83.743 0 0 0 3.893-15.601c1.048-9.304-1.166-18.683-3.356-27.716l2.905 1.678m183.257 105.76c4.872-5.213 7.726-12.029 9.422-18.968 3.977-16.195 1.582-34.602-9.274-47.269-31.963-37.309-86.636 3.12-70.21 46.043 10.494 27.418 47.141 44.734 70.062 20.194Z" stroke-width="2"/><path d="m724.274 595.45 21.288-29.217c6.656-9.137 13.367-18.371 18.013-28.679m-21.074-34.039a3106.447 3106.447 0 0 0-93.356 25.435m102.046-61.969a1435.012 1435.012 0 0 1-79.949-66.104m124.134 51.145A6724.611 6724.611 0 0 0 849 382.866" stroke-width="2"/><path d="M748.314 562.429c16.693 9.638 153.583 115.937 172.424 119.816" stroke-width="2"/><path d="M805.495 602.248a475.909 475.909 0 0 0 49.447-66.816m-140.351-98.709a6527.687 6527.687 0 0 0 66.394-61.452c-.717.464-1.431.94-2.161 1.407m-299.043 189.2a1434.062 1434.062 0 0 0-84.951 1.054m93.134 68.528-94.192-.975m89.641 86.478-104.207-14.857m50.095 6.183a390.936 390.936 0 0 0 6.194-76.283m164.513-30.473c-19.567-7.199-39.148-14.448-57.387-24.54-7.954-4.368-15.692-9.445-21.025-16.74-9.83-13.444-9.467-31.532-8.701-48.168m101.362 147.54a1524.534 1524.534 0 0 1-123.12 4.741" stroke-width="2"/><path d="M545.554 666.783a2129.061 2129.061 0 0 1-.071-83.817m138.782-5.736c-7.838 18.803-9.519 39.822-6.836 60.011 3.686 27.682 12.531 58.919 41.367 69.116 36.119 12.763 77.733 2.44 107.527-20.251m-150.846-65.817a522.891 522.891 0 0 0-69.618 11.639" stroke-width="2"/><path d="M681.596 657.046a128.647 128.647 0 0 0 63.514-40.599m-495.47-261.17a534.996 534.996 0 0 1-89.655 105.431m163.531-5.38a766.742 766.742 0 0 1-122.583-33.867m127.708 121.553a768.711 768.711 0 0 1-148.671-27.271m146.911 120.154a549.587 549.587 0 0 1-124.279-14.825m97.951 119.568a459.555 459.555 0 0 1-88.658-20.272" stroke-width="2"/><path d="M257.671 439.024a469.603 469.603 0 0 1 24.443-68.433m-8.362 165.869c2.568-28.95 12.386-58.947 19.685-87.102m-96.797 70.724a2529.749 2529.749 0 0 1 26.087-89.537m23.361 198.833a914.3 914.3 0 0 1 6.278-98.096m15.168 202.792a511.027 511.027 0 0 0 14.829-99.247m84.733-594.564c40.008-14.342 88.411-25.155 129.818-34.784M369.276-58.593a960.64 960.64 0 0 1 56.129 80.709m51.616-12.243a414.28 414.28 0 0 0-64.958-117.812M281.714 86.546a161.684 161.684 0 0 0 99.841-29.588m-107.649-9.933a186.746 186.746 0 0 0 61.964-36.358" stroke-width="2"/><path d="M304.751 32.208c-6.841-11.152-17.438-19.506-28.595-26.258A43.251 43.251 0 0 0 264.471.52c-5.817-1.454-11.925-.754-17.789.451M211.97 167.09a91.478 91.478 0 0 1 71.466-39.176m-101.888 33.394c21.457-38.815 48.778-73.163 89.861-89.978m-76.474 65.048a389.359 389.359 0 0 0-45.612-36.8m87.122-9.816a266.496 266.496 0 0 0-83.236-75.386m61.306 46.61a267.33 267.33 0 0 1 42.243-34.765m-83.507-1.151c10.411-19.681 27.73-34.647 44.65-49.126m256.804 794.853-102.029-36.905m55.652 111.487-86.025-42.551m22.924 91.017c-17.592-13.955-29.069-34.963-48.096-46.879" stroke-width="2"/><path d="M351.847 563.946c.467-.994.904-1.993 1.342-2.992"/><path d="M355.541 554.842a99.593 99.593 0 0 0 2.523-56.915c-5.137-20.237-16.496-38.224-25.867-56.838a311.246 311.246 0 0 1-20.607-52.4c-4.027-13.764-7.111-28.161-5.294-42.392 3.11-24.346 21.763-45.979 45.395-52.623 7.454-2.106 15.593-2.821 22.869-.076 18.864 7.007 18.6 34.227 6.013 46.799-10.655 10.616-27.527 13.223-42.084 9.431-14.557-3.793-27.089-13.093-37.859-23.613a184.071 184.071 0 0 1-41.89-63.114c-12.756-31.709-16.991-66.502-31.367-97.52-6.987-15.087-16.683-29.449-29.967-39.227" stroke-dasharray="4.99 4.99"/><path d="M194.729 124.466a64.38 64.38 0 0 0-2.764-1.756"/><path d="M617.287 350.507c55.376 19.313 95.143 71.517 109.889 128.269 2.22 8.59 3.959 17.459 3.201 26.278-.758 8.819-4.254 17.747-11.03 23.497-11.588 9.821-31.031 7.135-40.746-4.563-9.715-11.697-9.466-29.959-.774-42.436 8.691-12.478 24.559-18.982 39.733-18.055 15.809.974 30.239 9.102 43.266 18.121a285.061 285.061 0 0 1 42.295 35.815c12.872 13.253 24.533 27.808 39.026 39.31 19.869 15.924 44.156 25.291 68.021 34.404" stroke-dasharray="5 5"/></g></svg>

<svg width="802" height="1027" viewBox="0 0 802 1027" fill="none" xmlns="http://www.w3.org/2000/svg">
<g opacity="0.4">
<path d="M330.035 388.563C290.355 377.799 247.888 358.406 220.359 327.874C204.045 309.777 192.383 287.977 182.711 265.604C165.899 226.673 154.723 185.544 149.521 143.459C149.521 143.459 136.204 33.6536 176.226 -90.4165" stroke="white" stroke-width="9" stroke-miterlimit="10"/>
<path d="M192.366 274.142C222.372 256.144 249.224 231.894 266.421 201.385C283.618 170.876 290.514 133.874 281.253 100.17C281.253 100.17 271.296 -19.2736 166.014 -54.9545" stroke="white" stroke-width="9" stroke-miterlimit="10"/>
<path d="M494.584 195.226C487.404 142.139 486.698 88.3757 492.482 35.1182C492.482 35.1182 505.289 -80.235 553.262 -175.189" stroke="white" stroke-width="9" stroke-miterlimit="10"/>
<path d="M391.492 509.512C552.264 500.218 715.842 565.5 826.006 682.949C826.006 682.949 885.066 745.126 929.482 853.924" stroke="white" stroke-width="9" stroke-miterlimit="10"/>
<path d="M557.584 521.844C574.626 487.211 592.652 451.391 623.095 427.631C638.414 415.684 656.246 407.392 674.193 399.937C719.918 380.902 769.631 366.523 818.587 374.028C836.401 376.758 853.632 382.276 870.628 388.387" stroke="white" stroke-width="9" stroke-miterlimit="10"/>
<path d="M612.663 545.062C614.445 545.331 614.013 548.024 613.15 549.612C598.993 575.467 598.234 607.067 605.419 635.655C612.605 664.244 627.106 690.412 642.373 715.641C646.628 722.642 650.954 729.623 655.353 736.585C655.353 736.585 740.707 881.956 885.744 765.988" stroke="white" stroke-width="9" stroke-miterlimit="10"/>
<path d="M465.293 511.758C497.055 597.695 499.54 691.718 472.36 779.214C472.36 779.214 417.229 942.649 252.335 898.478" stroke="white" stroke-width="9" stroke-miterlimit="10"/>
<path d="M637.671 416.453C603.545 362.774 582.641 301.765 576.675 238.437" stroke="white" stroke-width="9" stroke-miterlimit="10"/>
<path d="M241.966 347.348C257.429 334.521 263.364 312.918 262.047 292.865C260.731 272.811 253.197 253.759 245.74 235.093" stroke="white" stroke-width="2" stroke-miterlimit="10"/>
<path d="M256.513 212.764C249.739 203.392 242.451 194.401 234.684 185.833C229.311 179.905 223.605 174.107 216.613 170.242C209.184 166.113 200.693 164.4 192.321 162.98C180.092 160.92 167.783 159.41 155.397 158.451" stroke="white" stroke-width="2" stroke-miterlimit="10"/>
<path d="M206.746 306.692C222.285 295.015 240.574 287.544 259.845 285.002" stroke="white" stroke-width="2" stroke-miterlimit="10"/>
<path d="M337.481 343.233C322.498 336.349 307.1 330.411 291.375 325.452" stroke="white" stroke-width="2" stroke-miterlimit="10"/>
<path d="M301.753 311.573C293.658 307.851 285.381 304.54 276.952 301.652C274.927 300.916 272.857 300.31 270.754 299.839C268.087 299.303 265.356 299.157 262.647 299.407" stroke="white" stroke-width="2" stroke-miterlimit="10"/>
<path d="M330.697 222.519C320.987 226.789 317.713 237.91 321.379 247.24C324.01 253.97 330.731 256.823 337.949 255.404C341.488 254.644 344.731 252.876 347.287 250.313C349.844 247.75 351.603 244.502 352.355 240.961C352.905 238.11 352.717 235.166 351.81 232.407C350.902 229.649 349.304 227.168 347.169 225.201C344.94 223.274 342.221 222.003 339.313 221.529C336.405 221.056 333.422 221.398 330.697 222.519Z" stroke="white" stroke-width="2" stroke-miterlimit="10"/>
<path d="M261.923 358.987C282.335 340.628 314.033 299.016 328.332 254.806" stroke="white" stroke-width="2" stroke-miterlimit="10"/>
<path d="M320.29 239.323C296.791 237.099 273.42 233.864 250.175 229.618" stroke="white" stroke-width="2" stroke-miterlimit="10"/>
<path d="M330.869 221.794C323.754 195.409 306.718 172.795 283.321 158.677" stroke="white" stroke-width="2" stroke-miterlimit="10"/>
<path d="M344.969 222.005C371.399 195.521 403.821 175.857 436.7 157.997C453.28 148.982 470.192 140.299 488.354 135.215" stroke="white" stroke-width="2" stroke-miterlimit="10"/>
<path d="M377.338 275.31C369.077 265.739 359.411 257.478 348.671 250.808" stroke="white" stroke-width="2" stroke-miterlimit="10"/>
<path d="M363.596 259.468L387.373 233.111C390.213 230.267 392.611 227.013 394.488 223.458C396.226 219.817 396.734 215.434 394.969 211.837C393.922 209.951 392.581 208.245 390.996 206.782L379.138 194.628" stroke="white" stroke-width="2" stroke-miterlimit="10"/>
<path d="M417.267 168.361C408.385 156.074 393.719 149.597 379.759 143.677C372.104 140.423 364.448 137.17 356.455 134.684C334.021 127.671 310.144 126.972 286.576 127.073" stroke="white" stroke-width="2" stroke-miterlimit="10"/>
<path d="M308.979 179.086C325.846 166.692 340.647 151.709 352.834 134.691" stroke="white" stroke-width="2" stroke-miterlimit="10"/>
<path d="M374.433 141.726C407.327 113.606 445.523 92.3641 486.765 79.2535" stroke="white" stroke-width="2" stroke-miterlimit="10"/>
<path d="M434.172 100.252C429.95 95.945 425.508 91.8593 420.865 88.0106L400.364 70.4386C400.364 70.4386 311.223 12.9164 280.182 -98.2721" stroke="white" stroke-width="2" stroke-miterlimit="10"/>
<path d="M445.577 152.946C443.608 148.535 440.355 144.848 437.152 141.201L413.408 114.363" stroke="white" stroke-width="2" stroke-miterlimit="10"/>
<path d="M438.237 221.911C428.923 205.535 418.184 190.011 406.146 175.519" stroke="white" stroke-width="2" stroke-miterlimit="10"/>
<path d="M474.123 204.996C469.951 196.616 465.806 188.338 460.851 180.48C455.266 171.638 448.616 163.325 444.745 153.59" stroke="white" stroke-width="2" stroke-miterlimit="10"/>
<path d="M635.477 135.589C615.969 119.8 591.719 110.518 566.938 106.548C542.158 102.578 516.802 103.7 491.931 107.04" stroke="white" stroke-width="2" stroke-miterlimit="10"/>
<path d="M602.293 347.361C580.486 370.137 561.131 395.73 548.542 424.651C535.953 453.573 530.364 486.086 536.239 517.075" stroke="white" stroke-width="2" stroke-miterlimit="10"/>
<path d="M530.339 183.949C536.547 158.374 539.3 132.082 538.523 105.776" stroke="white" stroke-width="2" stroke-miterlimit="10"/>
<path d="M574.721 171.393C579.339 151.083 581.185 130.242 580.208 109.437" stroke="white" stroke-width="2" stroke-miterlimit="10"/>
<path d="M558.883 105.097C561.515 80.213 561.097 55.1008 557.638 30.3185C557.638 30.3185 548.021 -44.1567 514.518 -72.6271" stroke="white" stroke-width="2" stroke-miterlimit="10"/>
<path d="M643.959 51.7457C615.957 49.575 588.04 55.7255 560.661 61.8543" stroke="white" stroke-width="2" stroke-miterlimit="10"/>
<path d="M578.028 476.313C565.505 468.206 552.315 461.178 538.602 455.305" stroke="white" stroke-width="2" stroke-miterlimit="10"/>
<path d="M608.595 434.23C595.479 420.146 579.678 408.829 562.121 400.946" stroke="white" stroke-width="2" stroke-miterlimit="10"/>
<path d="M505.945 512.222C505.879 502.796 505.661 493.357 505.29 483.904C505.168 480.613 504.987 477.202 503.523 474.27C500.134 467.498 491.472 465.654 483.947 464.862C461.506 462.513 438.875 462.63 416.459 465.212C415.024 465.26 413.627 465.681 412.404 466.434C410.219 468.051 410.155 471.256 410.353 473.971C411.039 484.967 412.166 495.927 413.736 506.849" stroke="white" stroke-width="2" stroke-miterlimit="10"/>
<path d="M710.187 382.614C707.338 347.626 692.223 314.961 677.038 283.306C666.034 260.367 654.732 237.277 638.837 217.399" stroke="white" stroke-width="2" stroke-miterlimit="10"/>
<path d="M598.906 321.961C623.708 308.065 649.648 296.308 676.445 286.815C677.002 286.666 677.66 286.286 677.616 285.715C677.571 285.144 676.398 285.322 676.761 285.768" stroke="white" stroke-width="2" stroke-miterlimit="10"/>
<path d="M695.056 319.71C736.829 301.354 779.211 284.48 822.204 269.088" stroke="white" stroke-width="2" stroke-miterlimit="10"/>
<path d="M659.617 245.18C711.142 218.376 753.623 176.979 781.749 126.163" stroke="white" stroke-width="2" stroke-miterlimit="10"/>
<path d="M767.281 291.417C756.168 260.678 738.944 230.22 719.875 203.716" stroke="white" stroke-width="2" stroke-miterlimit="10"/>
<path d="M752.284 169.471C737.527 158.355 721.61 148.868 704.813 141.175" stroke="white" stroke-width="2" stroke-miterlimit="10"/>
<path d="M711.559 69.9405C725.087 66.0803 738.729 62.6781 752.485 59.7339C752.484 59.6318 752.457 59.5318 752.408 59.4425C752.358 59.3532 752.287 59.2776 752.201 59.2226C752.115 59.1676 752.017 59.1349 751.915 59.1274C751.813 59.1199 751.711 59.1378 751.618 59.1795" stroke="white" stroke-width="2" stroke-miterlimit="10"/>
<path d="M636.943 548.935C650.615 528.432 659.738 505.238 663.698 480.914C667.658 456.59 666.363 431.7 659.901 407.919" stroke="white" stroke-width="2" stroke-miterlimit="10"/>
<path d="M658.34 501.44C651.288 496.288 642.696 493.692 634.346 491.289C617.704 486.568 600.936 482.341 584.044 478.609" stroke="white" stroke-width="2" stroke-miterlimit="10"/>
<path d="M621.109 486.804C622.996 480.545 624.939 474.294 626.938 468.051C628.733 462.987 630.037 457.763 630.831 452.45C631.879 443.146 629.665 433.767 627.475 424.734L630.38 426.412" stroke="white" stroke-width="2" stroke-miterlimit="10"/>
<path d="M813.637 532.172C818.509 526.959 821.363 520.143 823.059 513.204C827.036 497.009 824.641 478.602 813.785 465.935C781.822 428.626 727.149 469.055 743.575 511.978C754.069 539.396 790.716 556.712 813.637 532.172Z" stroke="white" stroke-width="2" stroke-miterlimit="10"/>
<path d="M724.274 595.45L745.562 566.233C752.218 557.096 758.929 547.862 763.575 537.554" stroke="white" stroke-width="2" stroke-miterlimit="10"/>
<path d="M742.501 503.515C711.248 511.509 680.129 519.988 649.145 528.95" stroke="white" stroke-width="2" stroke-miterlimit="10"/>
<path d="M751.191 466.981C723.758 445.921 697.108 423.886 671.242 400.877" stroke="white" stroke-width="2" stroke-miterlimit="10"/>
<path d="M795.376 452.022C813.386 429.105 831.261 406.053 849 382.866" stroke="white" stroke-width="2" stroke-miterlimit="10"/>
<path d="M748.314 562.429C765.007 572.067 901.897 678.366 920.738 682.245" stroke="white" stroke-width="2" stroke-miterlimit="10"/>
<path d="M805.495 602.248C823.894 581.461 840.44 559.104 854.942 535.432" stroke="white" stroke-width="2" stroke-miterlimit="10"/>
<path d="M714.591 436.723C736.867 416.39 758.998 395.906 780.985 375.271C780.268 375.735 779.554 376.211 778.824 376.678" stroke="white" stroke-width="2" stroke-miterlimit="10"/>
<path d="M479.781 565.878C451.456 565.39 423.139 565.742 394.83 566.932" stroke="white" stroke-width="2" stroke-miterlimit="10"/>
<path d="M487.964 635.46L393.772 634.485" stroke="white" stroke-width="2" stroke-miterlimit="10"/>
<path d="M483.413 720.963L379.206 706.106" stroke="white" stroke-width="2" stroke-miterlimit="10"/>
<path d="M429.301 712.289C433.856 687.125 435.93 661.575 435.495 636.006" stroke="white" stroke-width="2" stroke-miterlimit="10"/>
<path d="M600.008 605.533C580.441 598.334 560.86 591.085 542.621 580.993C534.667 576.625 526.929 571.548 521.596 564.253C511.766 550.809 512.129 532.721 512.895 516.085" stroke="white" stroke-width="2" stroke-miterlimit="10"/>
<path d="M614.257 663.625C573.309 666.863 532.269 668.444 491.137 668.366" stroke="white" stroke-width="2" stroke-miterlimit="10"/>
<path d="M545.554 666.783C544.98 638.851 544.957 610.912 545.483 582.966" stroke="white" stroke-width="2" stroke-miterlimit="10"/>
<path d="M684.265 577.23C676.427 596.033 674.746 617.052 677.429 637.241C681.115 664.923 689.96 696.16 718.796 706.357C754.915 719.12 796.529 708.797 826.323 686.106" stroke="white" stroke-width="2" stroke-miterlimit="10"/>
<path d="M675.477 620.289C652.035 622.596 628.776 626.485 605.859 631.928" stroke="white" stroke-width="2" stroke-miterlimit="10"/>
<path d="M681.596 657.046C706.346 650.159 728.467 636.018 745.11 616.447" stroke="white" stroke-width="2" stroke-miterlimit="10"/>
<path d="M249.64 355.277C224.446 394.154 194.309 429.594 159.985 460.708" stroke="white" stroke-width="2" stroke-miterlimit="10"/>
<path d="M323.516 455.328C281.788 447.453 240.785 436.125 200.933 421.461" stroke="white" stroke-width="2" stroke-miterlimit="10"/>
<path d="M328.641 543.014C278.308 538.83 228.511 529.695 179.97 515.743" stroke="white" stroke-width="2" stroke-miterlimit="10"/>
<path d="M326.881 635.897C285.025 635.704 243.329 630.73 202.602 621.072" stroke="white" stroke-width="2" stroke-miterlimit="10"/>
<path d="M300.553 740.64C270.403 736.831 240.705 730.04 211.895 720.368" stroke="white" stroke-width="2" stroke-miterlimit="10"/>
<path d="M257.671 439.024C264.039 415.616 272.211 392.736 282.114 370.591" stroke="white" stroke-width="2" stroke-miterlimit="10"/>
<path d="M273.752 536.46C276.32 507.51 286.138 477.513 293.437 449.358" stroke="white" stroke-width="2" stroke-miterlimit="10"/>
<path d="M196.64 520.082C204.788 490.067 213.484 460.221 222.727 430.545" stroke="white" stroke-width="2" stroke-miterlimit="10"/>
<path d="M246.088 629.378C246.42 596.59 248.516 563.845 252.366 531.282" stroke="white" stroke-width="2" stroke-miterlimit="10"/>
<path d="M267.534 734.074C275.721 701.558 280.688 668.316 282.363 634.827" stroke="white" stroke-width="2" stroke-miterlimit="10"/>
<path d="M367.096 40.2634C407.104 25.9206 455.507 15.1083 496.914 5.47875" stroke="white" stroke-width="2" stroke-miterlimit="10"/>
<path d="M369.276 -58.5929C389.351 -32.6655 408.085 -5.72731 425.405 22.1159" stroke="white" stroke-width="2" stroke-miterlimit="10"/>
<path d="M477.021 9.87305C461.932 -32.6745 439.99 -72.4698 412.063 -107.939" stroke="white" stroke-width="2" stroke-miterlimit="10"/>
<path d="M281.714 86.5464C317.346 87.9641 352.448 77.5616 381.555 56.9582" stroke="white" stroke-width="2" stroke-miterlimit="10"/>
<path d="M273.906 47.0254C296.719 39.0309 317.763 26.6831 335.87 10.6674" stroke="white" stroke-width="2" stroke-miterlimit="10"/>
<path d="M304.751 32.2075C297.91 21.0562 287.313 12.7019 276.156 5.94984C272.554 3.5664 268.615 1.73607 264.471 0.519632C258.654 -0.93388 252.546 -0.233545 246.682 0.971401" stroke="white" stroke-width="2" stroke-miterlimit="10"/>
<path d="M211.97 167.09C220.044 155.481 230.699 145.901 243.099 139.104C255.499 132.306 269.306 128.476 283.436 127.914" stroke="white" stroke-width="2" stroke-miterlimit="10"/>
<path d="M181.548 161.308C203.005 122.493 230.326 88.1452 271.409 71.3301" stroke="white" stroke-width="2" stroke-miterlimit="10"/>
<path d="M194.935 136.378C180.677 122.983 165.43 110.682 149.323 99.5787" stroke="white" stroke-width="2" stroke-miterlimit="10"/>
<path d="M236.445 89.762C214.369 59.0063 185.994 33.3072 153.209 14.3762" stroke="white" stroke-width="2" stroke-miterlimit="10"/>
<path d="M214.515 60.9855C227.37 47.9834 241.525 36.3343 256.758 26.2212" stroke="white" stroke-width="2" stroke-miterlimit="10"/>
<path d="M173.251 25.0706C183.662 5.38896 200.981 -9.57675 217.901 -24.0557" stroke="white" stroke-width="2" stroke-miterlimit="10"/>
<path d="M474.705 770.797L372.676 733.892" stroke="white" stroke-width="2" stroke-miterlimit="10"/>
<path d="M428.328 845.379L342.303 802.828" stroke="white" stroke-width="2" stroke-miterlimit="10"/>
<path d="M365.227 893.845C347.635 879.89 336.158 858.882 317.131 846.966" stroke="white" stroke-width="2" stroke-miterlimit="10"/>
<path d="M351.847 563.946C352.314 562.952 352.751 561.953 353.189 560.954" stroke="white" stroke-miterlimit="10"/>
<path d="M355.541 554.842C361.906 536.521 362.783 516.74 358.064 497.927C352.927 477.69 341.568 459.703 332.197 441.089C323.759 424.281 316.862 406.743 311.59 388.689C307.563 374.925 304.479 360.528 306.296 346.297C309.406 321.951 328.059 300.318 351.691 293.674C359.145 291.568 367.284 290.853 374.56 293.598C393.424 300.605 393.16 327.825 380.573 340.397C369.918 351.013 353.046 353.62 338.489 349.828C323.932 346.035 311.4 336.735 300.63 326.215C282.442 308.309 268.177 286.816 258.74 263.101C245.984 231.392 241.749 196.599 227.373 165.581C220.386 150.494 210.69 136.132 197.406 126.354" stroke="white" stroke-miterlimit="10" stroke-dasharray="4.99 4.99"/>
<path d="M194.729 124.466C193.819 123.855 192.903 123.273 191.965 122.71" stroke="white" stroke-miterlimit="10"/>
<path d="M617.287 350.507C672.663 369.82 712.43 422.024 727.176 478.776C729.396 487.366 731.135 496.235 730.377 505.054C729.619 513.873 726.123 522.801 719.347 528.551C707.759 538.372 688.316 535.686 678.601 523.988C668.886 512.291 669.135 494.029 677.827 481.552C686.518 469.074 702.386 462.57 717.56 463.497C733.369 464.471 747.799 472.599 760.826 481.618C776.054 492.154 790.219 504.149 803.121 517.433C815.993 530.686 827.654 545.241 842.147 556.743C862.016 572.667 886.303 582.034 910.168 591.147" stroke="white" stroke-miterlimit="10" stroke-dasharray="5 5"/>
</g>
</svg>
